public/images/poses-lg/WideAngleSeatedForwardBend.svg

<svg width="800" height="800" fill="none" xmlns="http://www.w3.org/2000/svg"><path d="M749.341 677.338c-2.224-4.444-11.111-11.111-13.334 0-1.31 6.536-8.891 31.112-13.334 37.779-4.445 6.667-28.892 2.223-37.78 0-8.89-2.222-104.063-21.396-117.785-24.445-20.001-4.444-92.885-11.818-106.84-13.139a30.085 30.085 0 0 0-4.115-.115l-55.722 2.141-55.722-2.143a30.072 30.072 0 0 0-4.115.115c-13.957 1.319-86.839 8.693-106.84 13.139-13.723 3.049-108.896 22.225-117.785 24.445-8.889 2.223-33.335 6.667-37.78 0s-12.025-31.243-13.334-37.779c-2.223-11.111-11.112-4.444-13.334 0-2.222 4.444-6.667 51.114 0 71.115.964 2.887 135.071-.653 178.37-7.874 6.085-1.016 14.096-.973 17.197-1.016l153.343-2.22 153.343 2.224c3.101.043 11.111 0 17.195 1.016 43.299 7.221 177.41 10.761 178.372 7.874 6.667-20.003 2.223-66.673 0-71.117Z" fill="#fff" stroke="#000" stroke-width="5" stroke-miterlimit="10"/><path d="M749.341 677.338c-2.224-4.444-11.111-11.111-13.334 0-1.31 6.536-8.891 31.112-13.334 37.779-4.445 6.667-28.892 2.223-37.78 0-8.89-2.222-104.063-21.396-117.785-24.445-20.001-4.444-92.885-11.818-106.84-13.139a30.085 30.085 0 0 0-4.115-.115l-55.722 2.141-55.722-2.143a30.072 30.072 0 0 0-4.115.115c-13.957 1.319-86.839 8.693-106.84 13.139-13.723 3.049-108.896 22.225-117.785 24.445-8.889 2.223-33.335 6.667-37.78 0s-12.025-31.243-13.334-37.779c-2.223-11.111-11.112-4.444-13.334 0-2.222 4.444-6.667 51.114 0 71.115.964 2.887 135.071-.653 178.37-7.874 6.085-1.016 14.096-.973 17.197-1.016l153.343-2.22 153.343 2.224c3.101.043 11.111 0 17.195 1.016 43.299 7.221 177.41 10.761 178.372 7.874 6.667-20.003 2.223-66.673 0-71.117Z" stroke="#000" stroke-width="5" stroke-miterlimit="10"/><path d="m457.117 651.702-2.197-48.269c-15.949-6.604-41.972-11.039-52.84-11.039-10.869 0-36.892 4.434-52.843 11.039l-2.195 48.269-4.444 31.457s19.806 19.232 59.483 19.232c39.677 0 59.481-19.232 59.481-19.232l-4.445-31.457Z" fill="#fff" stroke="#000" stroke-width="5" stroke-miterlimit="10"/><path d="m457.117 651.702-2.197-48.269c-15.949-6.604-41.972-11.039-52.84-11.039-10.869 0-36.892 4.434-52.843 11.039l-2.195 48.269-4.444 31.457s19.806 19.232 59.483 19.232c39.677 0 59.481-19.232 59.481-19.232l-4.445-31.457Z" stroke="#000" stroke-width="5" stroke-miterlimit="10"/><path d="M362.167 599.071c.87 32.028 30.705 48.323 40.254 48.323 9.55 0 36.722-16.457 39.597-48.323" stroke="#000" stroke-width="5" stroke-miterlimit="10"/><path d="M376.417 546.626c-16.494 34.186 9.542 75.25 24.52 75.448 14.98.197 42.088-40.164 26.5-74.775-9.823-21.816-40.625-22.22-51.02-.673Z" fill="#fff" stroke="#000" stroke-width="5" stroke-miterlimit="10"/><path d="M376.417 546.626c-16.494 34.186 9.542 75.25 24.52 75.448 14.98.197 42.088-40.164 26.5-74.775-9.823-21.816-40.625-22.22-51.02-.673Z" stroke="#000" stroke-width="5" stroke-miterlimit="10"/><path d="M498.102 587.792c-13.146-7.223-9.813-16.485-21.48-25.741-11.667-9.261-26.123-3.006-32.225-17.968-6.049-14.823-25.75-23.283-42.922-23.079H401.424c-17.167-.204-36.869 8.255-42.915 23.079-6.104 14.962-20.558 8.707-32.225 17.968-11.667 9.256-8.334 18.519-21.482 25.741-13.147 7.223-14.217 6.554-13.703 12.223.757 8.362 30.659 5.057 53.087 5.63 4.396.107 20.405 4.56 24.686 5.563 8.755 2.051 20.008 1.758 20.239-1.378.369-5-1.231-16.896-4.644-22.985-3.413-6.089-10.461-4.123-10.461-13.056 0-8.334 3.425-5.091 11.294-12.5 6.936-6.537 13.881-14.103 16.153-20.251 2.271 6.148 9.218 13.714 16.153 20.251 7.869 7.409 11.294 4.167 11.294 12.5 0 8.933-7.049 6.967-10.461 13.056-3.411 6.09-5.013 17.985-4.645 22.985.233 3.136 11.484 3.429 20.24 1.378 4.281-1.005 20.291-5.456 24.685-5.563 22.428-.573 52.33 2.731 53.089-5.63.512-5.668-.556-5-13.706-12.223Z" fill="#100200" stroke="#000" stroke-width="5" stroke-miterlimit="10"/><path d="M351.539 606.222s-28.892 6.666-33.335 26.668c-3.112 14.007-.484 91.023-.057 115.115.041 2.463.273 4.9.525 7.354.258 2.539.087 6.706-2.691 10.873-4.444 6.667-15.557 8.89-20.001 17.778-4.445 8.891 28.892 8.891 28.892 8.891s6.667 0 11.11-8.891c4.445-8.89 0-8.89 4.445-8.89s8.364 6.667 13.334 6.667c6.667 0 0-4.444-4.445-11.111-4.444-6.667-8.89 0-8.89-13.334 0-13.335 8.89-111.118 8.89-111.118" fill="#fff"/><path d="M351.539 606.222s-28.892 6.666-33.335 26.668c-3.112 14.007-.484 91.023-.057 115.115.041 2.463.273 4.9.525 7.354.258 2.539.087 6.706-2.691 10.873-4.444 6.667-15.557 8.89-20.001 17.778-4.445 8.891 28.892 8.891 28.892 8.891s6.667 0 11.11-8.891c4.445-8.89 0-8.89 4.445-8.89s8.364 6.667 13.334 6.667c6.667 0 0-4.444-4.445-11.111-4.444-6.667-8.89 0-8.89-13.334 0-13.335 8.89-111.118 8.89-111.118" stroke="#000" stroke-width="5" stroke-miterlimit="10"/><path d="M351.539 606.222s-28.892 6.666-33.335 26.668c-3.112 14.007-.484 91.023-.057 115.115.041 2.463.273 4.9.525 7.354.258 2.539.087 6.706-2.691 10.873-4.444 6.667-15.557 8.89-20.001 17.778-4.445 8.891 28.892 8.891 28.892 8.891s6.667 0 11.11-8.891c4.445-8.89 0-8.89 4.445-8.89s8.364 6.667 13.334 6.667c6.667 0 0-4.444-4.445-11.111-4.444-6.667-8.89 0-8.89-13.334 0-13.335 8.89-111.118 8.89-111.118" stroke="#000" stroke-width="5" stroke-miterlimit="10"/><path d="M450.339 606.222s28.891 6.666 33.335 26.668c3.109 14.007.48 91.023.055 115.115-.044 2.463-.272 4.9-.524 7.354-.26 2.539-.086 6.706 2.692 10.873 4.444 6.667 15.558 8.89 20.001 17.778 4.444 8.89-28.891 8.891-28.891 8.891s-6.667 0-11.112-8.891c-4.444-8.89 0-8.89-4.444-8.89-4.443 0-8.365 6.667-13.334 6.667-6.667 0 0-4.444 4.444-11.111 4.445-6.667 8.89 0 8.89-13.334 0-13.335-8.89-111.118-8.89-111.118" fill="#fff"/><path d="M450.339 606.222s28.891 6.666 33.335 26.668c3.109 14.007.48 91.023.055 115.115-.044 2.463-.272 4.9-.524 7.354-.26 2.539-.086 6.706 2.692 10.873 4.444 6.667 15.558 8.89 20.001 17.778 4.444 8.89-28.891 8.891-28.891 8.891s-6.667 0-11.112-8.891c-4.444-8.89 0-8.89-4.444-8.89-4.443 0-8.365 6.667-13.334 6.667-6.667 0 0-4.444 4.444-11.111 4.445-6.667 8.89 0 8.89-13.334 0-13.335-8.89-111.118-8.89-111.118" stroke="#000" stroke-width="5" stroke-miterlimit="10"/><path d="M450.339 606.222s28.891 6.666 33.335 26.668c3.109 14.007.48 91.023.055 115.115-.044 2.463-.272 4.9-.524 7.354-.26 2.539-.086 6.706 2.692 10.873 4.444 6.667 15.558 8.89 20.001 17.778 4.444 8.89-28.891 8.891-28.891 8.891s-6.667 0-11.112-8.891c-4.444-8.89 0-8.89-4.444-8.89-4.443 0-8.365 6.667-13.334 6.667-6.667 0 0-4.444 4.444-11.111 4.445-6.667 8.89 0 8.89-13.334 0-13.335-8.89-111.118-8.89-111.118M99.021 718.119v31.341M697.116 718.119v30.851" stroke="#000" stroke-width="5" stroke-miterlimit="10"/></svg>

<svg width="800" height="800" viewBox="0 0 800 800" fill="none" xmlns="http://www.w3.org/2000/svg">
<path d="M749.341 677.338C747.117 672.894 738.23 666.227 736.007 677.338C734.697 683.874 727.116 708.45 722.673 715.117C718.228 721.784 693.781 717.34 684.893 715.117C676.003 712.895 580.83 693.721 567.108 690.672C547.107 686.228 474.223 678.854 460.268 677.533C458.894 677.4 457.529 677.363 456.153 677.418L400.431 679.559L344.709 677.416C343.333 677.361 341.965 677.398 340.594 677.531C326.637 678.85 253.755 686.224 233.754 690.67C220.031 693.719 124.858 712.895 115.969 715.115C107.08 717.338 82.6341 721.782 78.1891 715.115C73.7441 708.448 66.1641 683.872 64.8551 677.336C62.6321 666.225 53.7431 672.892 51.5211 677.336C49.2991 681.78 44.8541 728.45 51.5211 748.451C52.4851 751.338 186.592 747.798 229.891 740.577C235.976 739.561 243.987 739.604 247.088 739.561L400.431 737.341L553.774 739.565C556.875 739.608 564.885 739.565 570.969 740.581C614.268 747.802 748.379 751.342 749.341 748.455C756.008 728.452 751.564 681.782 749.341 677.338Z" fill="white" stroke="black" stroke-width="5" stroke-miterlimit="10"/>
<path d="M749.341 677.338C747.117 672.894 738.23 666.227 736.007 677.338C734.697 683.874 727.116 708.45 722.673 715.117C718.228 721.784 693.781 717.34 684.893 715.117C676.003 712.895 580.83 693.721 567.108 690.672C547.107 686.228 474.223 678.854 460.268 677.533C458.894 677.4 457.529 677.363 456.153 677.418L400.431 679.559L344.709 677.416C343.333 677.361 341.965 677.398 340.594 677.531C326.637 678.85 253.755 686.224 233.754 690.67C220.031 693.719 124.858 712.895 115.969 715.115C107.08 717.338 82.6341 721.782 78.1891 715.115C73.7441 708.448 66.1641 683.872 64.8551 677.336C62.6321 666.225 53.7431 672.892 51.5211 677.336C49.2991 681.78 44.8541 728.45 51.5211 748.451C52.4851 751.338 186.592 747.798 229.891 740.577C235.976 739.561 243.987 739.604 247.088 739.561L400.431 737.341L553.774 739.565C556.875 739.608 564.885 739.565 570.969 740.581C614.268 747.802 748.379 751.342 749.341 748.455C756.008 728.452 751.564 681.782 749.341 677.338Z" stroke="black" stroke-width="5" stroke-miterlimit="10"/>
<path d="M457.117 651.702L454.92 603.433C438.971 596.829 412.948 592.394 402.08 592.394C391.211 592.394 365.188 596.828 349.237 603.433L347.042 651.702L342.598 683.159C342.598 683.159 362.404 702.391 402.081 702.391C441.758 702.391 461.562 683.159 461.562 683.159L457.117 651.702Z" fill="white" stroke="black" stroke-width="5" stroke-miterlimit="10"/>
<path d="M457.117 651.702L454.92 603.433C438.971 596.829 412.948 592.394 402.08 592.394C391.211 592.394 365.188 596.828 349.237 603.433L347.042 651.702L342.598 683.159C342.598 683.159 362.404 702.391 402.081 702.391C441.758 702.391 461.562 683.159 461.562 683.159L457.117 651.702Z" stroke="black" stroke-width="5" stroke-miterlimit="10"/>
<path d="M362.167 599.071C363.037 631.099 392.872 647.394 402.421 647.394C411.971 647.394 439.143 630.937 442.018 599.071" stroke="black" stroke-width="5" stroke-miterlimit="10"/>
<path d="M376.417 546.626C359.923 580.812 385.959 621.876 400.937 622.074C415.917 622.271 443.025 581.91 427.437 547.299C417.614 525.483 386.812 525.079 376.417 546.626Z" fill="white" stroke="black" stroke-width="5" stroke-miterlimit="10"/>
<path d="M376.417 546.626C359.923 580.812 385.959 621.876 400.937 622.074C415.917 622.271 443.025 581.91 427.437 547.299C417.614 525.483 386.812 525.079 376.417 546.626Z" stroke="black" stroke-width="5" stroke-miterlimit="10"/>
<path d="M498.102 587.792C484.956 580.569 488.289 571.307 476.622 562.051C464.955 552.79 450.499 559.045 444.397 544.083C438.348 529.26 418.647 520.8 401.475 521.004C401.468 521.004 401.459 521.004 401.453 521.004C401.443 521.004 401.434 521.004 401.424 521.004C384.257 520.8 364.555 529.259 358.509 544.083C352.405 559.045 337.951 552.79 326.284 562.051C314.617 571.307 317.95 580.57 304.802 587.792C291.655 595.015 290.585 594.346 291.099 600.015C291.856 608.377 321.758 605.072 344.186 605.645C348.582 605.752 364.591 610.205 368.872 611.208C377.627 613.259 388.88 612.966 389.111 609.83C389.48 604.83 387.88 592.934 384.467 586.845C381.054 580.756 374.006 582.722 374.006 573.789C374.006 565.455 377.431 568.698 385.3 561.289C392.236 554.752 399.181 547.186 401.453 541.038C403.724 547.186 410.671 554.752 417.606 561.289C425.475 568.698 428.9 565.456 428.9 573.789C428.9 582.722 421.851 580.756 418.439 586.845C415.028 592.935 413.426 604.83 413.794 609.83C414.027 612.966 425.278 613.259 434.034 611.208C438.315 610.203 454.325 605.752 458.719 605.645C481.147 605.072 511.049 608.376 511.808 600.015C512.32 594.347 511.252 595.015 498.102 587.792Z" fill="#100200" stroke="black" stroke-width="5" stroke-miterlimit="10"/>
<path d="M351.539 606.222C351.539 606.222 322.647 612.888 318.204 632.89C315.092 646.897 317.72 723.913 318.147 748.005C318.188 750.468 318.42 752.905 318.672 755.359C318.93 757.898 318.759 762.065 315.981 766.232C311.537 772.899 300.424 775.122 295.98 784.01C291.535 792.901 324.872 792.901 324.872 792.901C324.872 792.901 331.539 792.901 335.982 784.01C340.427 775.12 335.982 775.12 340.427 775.12C344.872 775.12 348.791 781.787 353.761 781.787C360.428 781.787 353.761 777.343 349.316 770.676C344.872 764.009 340.426 770.676 340.426 757.342C340.426 744.007 349.316 646.224 349.316 646.224" fill="white"/>
<path d="M351.539 606.222C351.539 606.222 322.647 612.888 318.204 632.89C315.092 646.897 317.72 723.913 318.147 748.005C318.188 750.468 318.42 752.905 318.672 755.359C318.93 757.898 318.759 762.065 315.981 766.232C311.537 772.899 300.424 775.122 295.98 784.01C291.535 792.901 324.872 792.901 324.872 792.901C324.872 792.901 331.539 792.901 335.982 784.01C340.427 775.12 335.982 775.12 340.427 775.12C344.872 775.12 348.791 781.787 353.761 781.787C360.428 781.787 353.761 777.343 349.316 770.676C344.872 764.009 340.426 770.676 340.426 757.342C340.426 744.007 349.316 646.224 349.316 646.224" stroke="black" stroke-width="5" stroke-miterlimit="10"/>
<path d="M351.539 606.222C351.539 606.222 322.647 612.888 318.204 632.89C315.092 646.897 317.72 723.913 318.147 748.005C318.188 750.468 318.42 752.905 318.672 755.359C318.93 757.898 318.759 762.065 315.981 766.232C311.537 772.899 300.424 775.122 295.98 784.01C291.535 792.901 324.872 792.901 324.872 792.901C324.872 792.901 331.539 792.901 335.982 784.01C340.427 775.12 335.982 775.12 340.427 775.12C344.872 775.12 348.791 781.787 353.761 781.787C360.428 781.787 353.761 777.343 349.316 770.676C344.872 764.009 340.426 770.676 340.426 757.342C340.426 744.007 349.316 646.224 349.316 646.224" stroke="black" stroke-width="5" stroke-miterlimit="10"/>
<path d="M450.339 606.222C450.339 606.222 479.23 612.888 483.674 632.89C486.783 646.897 484.154 723.913 483.729 748.005C483.685 750.468 483.457 752.905 483.205 755.359C482.945 757.898 483.119 762.065 485.897 766.232C490.341 772.899 501.455 775.122 505.898 784.01C510.342 792.9 477.007 792.901 477.007 792.901C477.007 792.901 470.34 792.901 465.895 784.01C461.451 775.12 465.895 775.12 461.451 775.12C457.008 775.12 453.086 781.787 448.117 781.787C441.45 781.787 448.117 777.343 452.561 770.676C457.006 764.009 461.451 770.676 461.451 757.342C461.451 744.007 452.561 646.224 452.561 646.224" fill="white"/>
<path d="M450.339 606.222C450.339 606.222 479.23 612.888 483.674 632.89C486.783 646.897 484.154 723.913 483.729 748.005C483.685 750.468 483.457 752.905 483.205 755.359C482.945 757.898 483.119 762.065 485.897 766.232C490.341 772.899 501.455 775.122 505.898 784.01C510.342 792.9 477.007 792.901 477.007 792.901C477.007 792.901 470.34 792.901 465.895 784.01C461.451 775.12 465.895 775.12 461.451 775.12C457.008 775.12 453.086 781.787 448.117 781.787C441.45 781.787 448.117 777.343 452.561 770.676C457.006 764.009 461.451 770.676 461.451 757.342C461.451 744.007 452.561 646.224 452.561 646.224" stroke="black" stroke-width="5" stroke-miterlimit="10"/>
<path d="M450.339 606.222C450.339 606.222 479.23 612.888 483.674 632.89C486.783 646.897 484.154 723.913 483.729 748.005C483.685 750.468 483.457 752.905 483.205 755.359C482.945 757.898 483.119 762.065 485.897 766.232C490.341 772.899 501.455 775.122 505.898 784.01C510.342 792.9 477.007 792.901 477.007 792.901C477.007 792.901 470.34 792.901 465.895 784.01C461.451 775.12 465.895 775.12 461.451 775.12C457.008 775.12 453.086 781.787 448.117 781.787C441.45 781.787 448.117 777.343 452.561 770.676C457.006 764.009 461.451 770.676 461.451 757.342C461.451 744.007 452.561 646.224 452.561 646.224" stroke="black" stroke-width="5" stroke-miterlimit="10"/>
<path d="M99.021 718.119V749.46" stroke="black" stroke-width="5" stroke-miterlimit="10"/>
<path d="M697.116 718.119V748.97" stroke="black" stroke-width="5" stroke-miterlimit="10"/>
</svg>
